!!!ONB: MCCC : IJH0450_01 : Extracted Monophonic Melody
!!!COM: Haydn, Joseph
!!!OPR: String Quartet in E-flat major
!!!OMV: 1
!!!SCT: Hob.III:80 ; Op.76 No.6
!!!ODT: 1796///
**kern
*thru
*k[b-e-a-]
*E-:
*clefF
*M3/8
4ee-
16gg
16ff
=1
8ff
4r
=2
4ff
16aa-
16gg
=3
8gg
4r
=4
4.bb-
=5
4.bb-[
=6
16bb-]
16ccc
16bb-
16aa-
16gg
16ff
=7
16ee-
16dd
16ff
16ee-
16gg
16ee-
=8
4b-
8a-
=9
8g
4r
=10
4.r
=11
8r
8b-
8b-
=12
4.b-[
=13
8b-]
8b-
8b-
=14
4.b-[
=15
16b-]
16ee-
16dd
16cc
8b-
=16
4.b-[
=17
16b-]
16ee-
16dd
16cc
8b-
=18
16cc
16dd
16ee-
16cc
8b-
=19
16a-
16b-
16cc
16a-
8g
=20
16f
16g
16a-
16g
16f
16e-
=21
8b-
4r
=22
8r
8ff
8ff#
=23
4.gg[
=24
8gg]
8bb-
8gg
=25
4.ff[
=26
8ff]
16ddd
16bb-
16gg
16ff
=27
16ee-
16dd
16ee-
16dd
8ee-
=28
16ccc
16aa
16eee-
16ccc
16aa
16ee-
=29
8dd
16bb-
16aa
16bb-
16aa
=30
8bb-
8d
8b-
=31
8e-
16gg
16ff#
16gg
16ff#
=32
8gg
8e-
8c
=33
8A
16f
16a
16cc
16ee-
=34
24dd
24cc
24b-
4cc
=35
4b-
8r
=36
4r
8aa
=37
8bb-
8ff
8r
=38
4r
8aa
=39
8bb-
16b-
16a
16cc
16b-
=40
16dd
16cc
16ee-
16dd
16gg
16ff
=41
4ff
16gg
16ff
=42
8ee-
8dd
8cc
=43
4b-
8r
=44
4.r
=45
4r
24eee-
24ccc
24aa
=46
8bb-
8dd
8cc
=47
8b-
4r
=48
4b-
16dd
16cc
=49
4.cc
=50
8dd
8dd
8dd
=51
16ee-
16dd
8ee-
8r
=52
4ff
16aa-
16gg
=53
4gg
16bb-
16gg
=54
8ee-
8b-
16g
16e-
=55
8b-
4r
=56
4ee-
16gg
16ff
=57
8ff
4r
=58
4ff
16aa-
16gg
=59
8gg
4r
=60
4.bb-
=61
4.bb-[
=62
16bb-]
16ccc
16bb-
16aa-
16gg
16ff
=63
16ee-
16dd
16ff
16ee-
16gg
16ee-
=64
4b-
8a-
=65
8g
4r
=66
4.ddd-
=67
16ddd-
16ccc
16bb-
16aa-
16gg
16ff
=68
4gg
16aa-
16bb-
=69
16bb-
16aa-
16gg
16ff
16ee
16ff
=70
4.ccc
=71
16ccc
16bb-
16aa-
16gg
16ff
16ee-
=72
4ff
16gg
16aa-
=73
16aa-
16gg
16ff
16ee-
16dd
16ee-
=74
4e-
8r
=75
16b
16cc
16dd
16ee-
16ff
16gg
=76
8ee-
4r
=77
16b
16cc
16dd
16ee-
16ff
16gg
=78
8ee-
4r
=79
16ccc
16bb-
16aa-
16gg
16ff
16ee-
=80
8dd
4r
=81
16bb-
16aa-
16gg
16ff
16ee-
16dd-
=82
4cc
8cc
=83
8b-
16b-
16a
16b-
16a
=84
8b-
8d
8f
=85
4B-
8r
=86
4.r
=87
8r
8b-
8b-
=88
4.b-[
=89
8b-]
8b-
8b-
=90
4.b-[
=91
16b-]
16ee-
16dd
16cc
8b-
=92
4.b-[
=93
16b-]
16ee-
16dd
16cc
8b-
=94
16cc
16dd
16ee-
16cc
8b-
=95
16a-
16b-
16cc
16a-
8g
=96
16ff
16gg
16aa-
16ff
16bb-
16gg
=97
16ff
16gg
16aa-
16ff
16bb-
16gg
=98
16dd
16ee-
8g
8f
=99
4e-
8r
=100
8r
8b-
8b
=101
4.cc[
=102
8cc]
8aa-
8ccc
=103
4.bb-[
=104
16bb-]
16gg
16ff
16ee-
16dd
16ee-
=105
16a-
16g
16a-
16g
8a-
=106
16ff
16dd
16aa-
16ff
16dd
16a-
=107
8g
16ee-
16dd
16ee-
16dd
=108
8ee-
8G
8e-
=109
8A-
16cc
16b
16cc
16b
=110
8cc
8a-
8f
=111
8d
16B-
16d
16f
16a-
=112
24g
24f
24e-
4f
=113
4e-
8r
=114
4r
8dd
=115
8ee-
8b-
8r
=116
4r
8dd
=117
8ee-
16e-
16d
16f
16e-
=118
16g
16f
16a-
16g
16cc
16b-
=119
4b-
16aa-
16gg
=120
8ff
8ee-
8dd
=121
4ee-
8r
=122
4.r
=123
4r
16dd
16b-
=124
8ee-
8g
8f
=125
4e-
8r
=126
4.r
=127
4r
16bb-
16dd
=128
8ee-
8g
8f
=129
4e-
8r
==
*-
